packages/gestalt-icons-android/vr-theme/ic_vr_arrows-vertical_gestalt.svg

<svg width="24" height="24" viewBox="0 0 24 24" fill="none" xmlns="http://www.w3.org/2000/svg">
<path d="M21.2925 16.293L17.9996 19.5859V8.00015H15.9996L15.9996 19.5859L12.7067 16.293L11.2925 17.7073L16.9996 23.4144L22.7067 17.7073L21.2925 16.293Z" fill="black"/>
<path d="M2.70718 7.70628L6.00008 4.41339L6.00008 15.9992H8.00007L8.00008 4.41338L11.293 7.70628L12.7072 6.29207L7.00007 0.584961L1.29297 6.29207L2.70718 7.70628Z" fill="black"/>
</svg>

<svg xmlns="http://www.w3.org/2000/svg" width="24" height="24"><path d="M21.3 16.3 18 19.58V8h-2v11.59l-3.3-3.3-1.4 1.42 5.7 5.7 5.7-5.7zM2.7 7.7 6 4.42V16h2V4.4l3.3 3.3 1.4-1.42L7 .6 1.3 6.3z"/></svg>
